X:1
T:G minor Anonymous, 1579 Harmonized by Thomas Ravenscroft, 1621
T:Thomas Norton, 1562 86. 86. (C. M.)
T:Psalm 117 (Cambridge) No copyright. Transcribed from Ravenscroft, The Whole Booke of Psalmes, 1621.
%%score [ 1 2 3 4 ]
L:1/8
M:12/4
K:F
V:1 treble nm="Cantus" snm="C."
V:2 treble nm="Medius" snm="M."
V:3 treble-8 nm="Tenor" snm="T."
V:4 bass nm="Bassus" snm="B."
V:1
 D2 | G4 G2 ^F4 d2 c2 A4 B4 || B2 | c4 d2 c4 B2 d6 || ^F2 | ^F2 F2 G2 A4 B2 c4 B2 A4 || d2 | %7
 c4 B2 c2 A4 B6 |] %8
V:2
"^1. O all ye nations of the world,     Praise ye the Lord always:  And all ye people everywhere   Set forth His noble praise." B2 | %1
 d4 d2 d4 d2 _e2 d4 d4 || d2 | f4 f2 f4 de f6 || d2 | d2 d2 d2 f4 f2 f4 d2 d4 || f2 | %7
 f4 d2 _e2 d4 d6 |] %8
V:3
"^2. For great His kindness is to us, His truth endures for aye:  Wherefore praise ye the Lord our God,  Praise ye the Lord, I say." G2 | %1
 B4 G2 A4 G2 _E2 ^F4 G4 || B2 | A4 B2 A4 G2 A6 || A2 | A2 A2 B2 c4 B2 A4 G2 ^F4 || B2 | %7
 A4 G2 G2 ^F4 G6 |] %8
V:4
"^______________________________________\nEdited by B. C. Johnston, 2015\n   1. All notes half value of original. Bar lines as in original; double-bars indicate text lines.\n   2. Measure 2, \nTenor\n: low (fifth) note changed from E to E-flat.\n   3. Measure 2, \nCantus\n: last note changed from B-natural to B-flat.\n   4. Measure 8, Tenor: fourth note (F#) is half-note in original, needs to be whole-note." G,2 | %1
 G,4 G,2 D,4 B,,2 C,2 D,4 G,,4 || G,2 | F,4 B,,2 F,4 G,2 D,6 || D,2 | %5
 D,2 D,2 G,2 F,4 B,,2 F,4 G,2 D,4 || B,,2 | F,4 G,2 C,2 D,4 G,,6 |] %8

